svg/fluentui-system-icons/ic_fluent_chat_add_20_regular.svg

<svg width="20" height="20" viewBox="0 0 20 20" fill="none" xmlns="http://www.w3.org/2000/svg">
<path d="M10 2C14.4183 2 18 5.58172 18 10C18 10.085 17.9987 10.1696 17.996 10.2539C17.6867 9.99891 17.349 9.77706 16.9884 9.5938C16.778 5.91685 13.7296 3 10 3C6.13401 3 3 6.13401 3 10C3 11.217 3.31054 12.3878 3.89352 13.4249C3.94046 13.5084 3.9621 13.603 3.95692 13.6973L3.94274 13.7912L3.187 16.812L6.21104 16.0583C6.27294 16.0429 6.33662 16.0396 6.39873 16.0479L6.4903 16.0691L6.57701 16.1075C7.49769 16.6247 8.52367 16.9272 9.59381 16.9884C9.77706 17.349 9.99891 17.6867 10.2539 17.996C10.1696 17.9987 10.085 18 10 18C8.72679 18 7.49591 17.7018 6.38669 17.1393L6.266 17.075L2.62109 17.9851C2.31127 18.0625 2.02622 17.8369 2.00131 17.5438L2.00114 17.4624L2.01493 17.3787L2.925 13.735L2.86169 13.6153C2.4066 12.7186 2.12433 11.7422 2.03275 10.7283L2.00738 10.3463L2 10C2 5.58172 5.58172 2 10 2ZM19 14.5C19 16.9853 16.9853 19 14.5 19C12.0147 19 10 16.9853 10 14.5C10 12.0147 12.0147 10 14.5 10C16.9853 10 19 12.0147 19 14.5ZM15 12.5C15 12.2239 14.7761 12 14.5 12C14.2239 12 14 12.2239 14 12.5V14H12.5C12.2239 14 12 14.2239 12 14.5C12 14.7761 12.2239 15 12.5 15H14V16.5C14 16.7761 14.2239 17 14.5 17C14.7761 17 15 16.7761 15 16.5V15H16.5C16.7761 15 17 14.7761 17 14.5C17 14.2239 16.7761 14 16.5 14H15V12.5Z" fill="#212121"/>
</svg>

<svg xmlns="http://www.w3.org/2000/svg" width="20" height="20"><path d="M10 2a8 8 0 0 1 7.996 8.254 5.506 5.506 0 0 0-1.008-.66 7 7 0 1 0-13.094 3.83.5.5 0 0 1 .063.273l-.014.094-.756 3.021 3.024-.754a.502.502 0 0 1 .188-.01l.091.021.087.039c.92.517 1.947.82 3.017.88.183.361.405.699.66 1.008a7.968 7.968 0 0 1-3.867-.857l-.121-.064-3.645.91a.5.5 0 0 1-.62-.441v-.082l.014-.083.91-3.644-.063-.12a7.95 7.95 0 0 1-.83-2.887l-.025-.382L2 10a8 8 0 0 1 8-8Zm9 12.5a4.5 4.5 0 1 1-9 0 4.5 4.5 0 0 1 9 0Zm-4-2a.5.5 0 0 0-1 0V14h-1.5a.5.5 0 0 0 0 1H14v1.5a.5.5 0 0 0 1 0V15h1.5a.5.5 0 0 0 0-1H15v-1.5Z"/></svg>
